packages/sources/icons/src/vitamix/timer-fill.svg

<svg width="16" height="16" viewBox="0 0 16 16" fill="none" xmlns="http://www.w3.org/2000/svg">
<path fill-rule="evenodd" clip-rule="evenodd" d="M10.6664 1.33334H5.33308V2.66668H10.6664V1.33334ZM11.7451 4.64531L12.7137 3.67664L13.6564 4.61931L12.6877 5.58797C14.6751 8.0756 14.3733 11.6824 12 13.8051C9.62684 15.9278 6.00882 15.8271 3.75737 13.5757C1.50593 11.3242 1.40521 7.70619 3.52791 5.33298C5.65061 2.95977 9.25743 2.65792 11.7451 4.64531ZM7.33308 6.00001V10H8.66642V6.00001H7.33308Z" fill="#001018"/>
</svg>

<svg width="16" height="16" fill="none" xmlns="http://www.w3.org/2000/svg"><path fill-rule="evenodd" clip-rule="evenodd" d="M10.666 1.333H5.333v1.334h5.333V1.333zm1.08 3.312.968-.968.942.942-.968.969a6 6 0 1 1-.943-.943zM7.332 6v4h1.333V6H7.333z" fill="#001018"/></svg>
